X:4
T:Ashover simple chords 14
M:3/4
L:1/8
K:F#m
[eA,CE]c Ad ef | [eA,CE]c Ad2f | [eA,CE]c Ae cA | [BB,DF]c Bd2f | [eA,CE]c Ad ef |
[eA,CE]c Ad2f | [fD,F,A,]a fe dc | [BB,DF]c Bd2f | [eA,CE]c Ad ef |
[eA,CE]c Ad2f | [eA,CE]c Ae cA | [BB,DF]c Bd2f | [eA,CE]c Ad ef |
[eA,CE]c Ad2f | [fD,F,A,]a fe dc | [BB,DF]c Bd2f | [eA,CE]c Aa cA |
[eA,CE]c Ad2f | [eA,CE]c Aa cA | [BB,DF]c Bd2f | [eA,CE]c Aa cA |
[eA,CE]c Ad2f | [fD,F,A,]a fe dc | [BB,DF]c Bd2f |


